outputs/icons/device/wifi_off_sharp.svg

<svg width="1200" height="1200" viewBox="0 0 1200 1200" fill="none" xmlns="http://www.w3.org/2000/svg"><g clip-path="url(#clip0_133_16)"><path d="M1050 550.005L1150 450.007C963.5 263.507 706.5 192.507 465 234.507L594 363.507C759 362.507 924.5 424.507 1050 550.005ZM450 850.005L600 1000.005L750 850.005C667.5 767.005 533 767.005 450 850.005ZM950 650.005C896 596.005 832 557.505 764 533.505L915 684.505L950 650.005ZM170.5 82.007L100 152.507L252.5 305.007C179.5 341.507 111 389.507 50 450.007L150 550.005C211.5 488.507 282.5 442.007 358.5 411.007L470.5 523.005C389.5 544.505 313.5 587.005 250 650.005L350 750.005C417.5 682.505 505.5 648.005 594.5 647.005L948.5 1001.005L1019 930.505L170.5 82.007Z" fill="black"/></g><defs><clipPath id="clip0_133_16"><path width="24" fill="white" d="M0 0H1200V1200H0V0z"/></clipPath></defs></svg>

<svg xmlns="http://www.w3.org/2000/svg" width="1200" height="1200" fill="none"><g clip-path="url(#a)"><path fill="#000" d="m1050 550.005 100-99.998c-186.5-186.5-443.5-257.5-685-215.5l129 129c165-1 330.5 61 456 186.498m-600 300 150 150 150-150c-82.5-83-217-83-300 0m500-200c-54-54-118-92.5-186-116.5l151 151zM170.5 82.007l-70.5 70.5 152.5 152.5c-73 36.5-141.5 84.5-202.5 145l100 99.998c61.5-61.498 132.5-107.998 208.5-138.998l112 111.998c-81 21.5-157 64-220.5 127l100 100c67.5-67.5 155.5-102 244.5-103l354 354 70.5-70.5z"/></g><defs><clipPath id="a"><path fill="#fff" d="M0 0h1200v1200H0z"/></clipPath></defs></svg>
